!!!COM: Scriabin, Alexander
!!!OTL: Prelude
!!!OPR: 24 Preludes
!!!OPS: 11
!!!ONM: 13
!!!ODT: 1895
!!!AGN: Prelude
**kern	**kern
*staff2	*staff1
*Ipiano	*Ipiano
*clefF4	*clefG2
*k[b-e-a-d-g-c-]	*k[b-e-a-d-g-c-]
*G-:	*G-:
*M3/4	*M3/4
=1	=1
8r	2B- 2g- 2b-
8Cn	.
8D-L	.
8F	.
8G-	4B- 4g- 4b-
8E-J	.
=2	=2
*	*^
*	*	*^
8AA-L	4.dd-	[2g-	2.e-\
8E-	.	.	.
8A-	.	.	.
8E-	8cc-X	.	.
8d-	8b-L	8g-L]	.
8c-XJ	8a-J	8a-J	.
*	*v	*v	*v
=3	=3
8c-L	2a- 2ee-
8B-	.
8d-	.
8F	.
8c-	4a- 4ee- 4ff
8d-J	.
=4	=4
*	*^
*	*	*^
8c-L	2aa-	4.ee-	2a-\
8B-	.	.	.
8g-	.	.	.
8f	.	8ddn	.
8e-	4a-	8cc-L	4f\
8dnJ	.	8b-J	.
*	*	*v	*v
=5	=5	=5
4d-X	8b-L	2e- 2gn
.	8cc-J	.
8c-L	4ee-	.
8B-	.	.
8A-	4cc-	4e- 4a-
8G-XJ	.	.
=6	=6	=6
8G-L	8a-L	4d- 4a-
8F	8b-J	.
8E-	4dd-	2B- 2g-
8BB-	.	.
8E-	4g-	.
8d-J	.	.
=7	=7	=7
8BB-L	8g-L	4c- 4e-
8c-	8a-J	.
8AA-	4.dd-	2e- 2g-
8E-	.	.
8A-	.	.
[8E-J	8cc-	.
=8	=8	=8
4E-] [4c-	8b-L	4g-
.	8a-	.
2D- 2c-]	8ee-	2f
.	8ccn	.
.	8ee-	.
.	8dd-J	.
*	*v	*v
=9	=9
8r	2B- 2g- 2b-
8Cn	.
8D-L	.
8F	.
8G-	4B- 4g- 4b-
8E-J	.
=10	=10
*	*^
*	*	*^
8AA-L	4.dd-	[2g-	2.e-\
8E-	.	.	.
8A-	.	.	.
8E-	8cc-X	.	.
8d-	8b-L	8g-L]	.
8c-XJ	8a-J	8a-J	.
*	*v	*v	*v
=11	=11
8c-L	2a- 2ee-
8B-	.
8d-	.
8F	.
8c-	4a- 4ee- 4ff
8d-J	.
=12	=12
*	*^
*	*	*^
8c-L	2aa-	4.ee-	2a-\
8B-	.	.	.
8g-	.	.	.
8f	.	8ddn	.
8e-	4a-	8cc-L	4f\
8dnJ	.	8b-J	.
*	*	*v	*v
=13	=13	=13
4d-X	8b-L	2e- 2gn
.	8cc-J	.
8c-L	4ee-	.
8B-	.	.
8A-	4cc-	4e- 4a-
8G-XJ	.	.
=14	=14	=14
8G-L	8a-L	4d- 4a-
8F	8b-J	.
8E-	4dd-	2B- 2g-
8BB-	.	.
8E-	4g-	.
8d-J	.	.
=15	=15	=15
8BB-L	8g-L	4c- 4e-
8c-	8a-J	.
8AA-	4.dd-	2e- 2g-
8E-	.	.
8c-	.	.
8E-J	8cc-	.
=16	=16	=16
8AA-L	8fL	4dn
8BB-	8g-J	.
8GG-	2b-	4d 4f
8BB-	.	.
8B-	.	4e-
8BB-J	.	.
=17	=17	=17
8FFL	8ccnL	4dn 4a-
8BB-	8ddnJ	.
8EE-	4b- 4ee-	2g-
8BB-	.	.
8B-	4an 4cc	.
8BB-J	.	.
*	*v	*v
=18	=18
8BBB-L	2.dn 2.b- 2.ddn 2.ff
8BB-	.
8F	.
8dnJ	.
4b-	.
=19	=19
*	*^
4Gn	8ccnL	2f-X 2b-
.	8dd-J	.
8A-L	4ff-X	.
8G	.	.
8A-	4e- 4cc-X 4ee-	4rc
8G-XJ	.	.
*	*v	*v
=20	=20
8FL	8dnL 8a- 8b-
8F-X	8d-XJ 8gn 8cc-
8E-	2c- 2a-
8Dn	.
8F-	.
8E-J	.
=21	=21
*	*^
4Dn	8gnL	2c- 2f
.	8a-J	.
8E-L	4cc-	.
8D	.	.
8E-	4g-X	4g-
8c-J	.	.
=22	=22	=22
4Dn	8gnL	2c- 2f
.	8a-J	.
8E-L	4cc-	.
8D	.	.
8E-	4B- 4g-X 4b-	4rc
8D-XJ	.	.
=23	=23	=23
*^	*	*
4Cn	4rEE	8fL	4An 4e-
.	.	8g-J	.
2d-	8d-L	2B- 2g- 2b-	4rc
.	8D-	.	.
.	8G-	.	4rc
.	8D-J	.	.
=24	=24	=24	=24
2.d-	8d-L	4raa	4rc
.	8D-	.	.
.	8A-X	4g- 4dd-	2c-X
.	8D-	.	.
.	8E-	4f 4a-	.
.	8D-J	.	.
*v	*v	*	*
*	*v	*v
=25	=25
8GG-L	2B- 2g- 2b-
8Cn	.
8D-	.
8F	.
8G-	4B- 4g- 4b-
8E-J	.
=26	=26
*	*^
*	*	*^
8GG-L	4.dd-	[2g-	2.e-\
8E-	.	.	.
8A-	.	.	.
8E-	8cc-X	.	.
8d-	8b-L	8g-L]	.
8c-XJ	8a-J	8a-J	.
*	*v	*v	*v
=27	=27
8c-L	2a- 2ee-
8B-	.
8d-	.
8D-	.
8c-	4a- 4dd- 4ff
8d-J	.
=28	=28
8c-L	2.g- 2.dd- 2.gg-
8B-	.
8D-	.
8GG-	.
8D-	.
8B-J	.
=29	=29
8c-L	2a- 2ee-
8B-	.
8d-	.
8D-	.
8c-	4a- 4dd- 4ff
8d-J	.
=30	=30
8c-L	2g- 2dd- 2gg-
8B-	.
8D-	.
8GG-	.
8c-	4a- 4dd- 4ff
8d-J	.
=31	=31
8c-L	2.g- 2.dd- 2.gg-
8B-	.
8D-	.
8GG-	.
8D-	.
8B-J	.
=32	=32
[2.d-	2.r
=33	=33
2.d-_	2.r
=34	=34
*^	*
2.d-_	4DD- 4D-	4c- 4f 4a-
.	4rEE	4r
.	4rEE	4r
=35	=35	=35
2.d-]	2.GG- 2.D-	2.B- 2.g- 2.b-
*v	*v	*
==	==
*-	*-
!!!system-decoration: {(*)}
!!!ENC: Bryan Jacob Bell
!!!END: November 2021 to April 2022
!!!PED: Günter Philipp
!!!PTL: Ausgewählte Klavierwerke (Edition Peters)
